build/img/section4-card-2.svg

<svg width="77" height="77" viewBox="0 0 77 77" fill="none" xmlns="http://www.w3.org/2000/svg">
<path d="M32.3652 31.8227H41.509V30.1684H44.0957L38.5012 12.9336L32.3652 31.8227Z" fill="#69C9C9"/>
<path d="M26.6945 44.8465L29.5219 36.1539L27.9578 35.6426L28.7549 33.1761H10.6328L26.6945 44.8465Z" fill="#69C9C9"/>
<path d="M37.343 54.2609L29.9438 48.8769L28.9813 50.2154L26.8758 48.6964L21.2812 65.9312L37.343 54.2609Z" fill="#69C9C9"/>
<path d="M49.5838 47.0421L42.1846 52.4111L43.1621 53.7495L41.0566 55.2835L55.7197 65.9312L49.5838 47.0421Z" fill="#69C9C9"/>
<path d="M46.502 33.1761L49.3293 41.8687L50.9084 41.3574L51.7055 43.8238L66.3685 33.1761H46.502Z" fill="#69C9C9"/>
<path d="M38.5 30.1682H35.4922V33.176H38.5V30.1682Z" fill="#4D5152"/>
<path d="M27.029 38.5049L26.0996 41.3656L28.9603 42.295L29.8898 39.4343L27.029 38.5049Z" fill="#4D5152"/>
<path d="M33.1821 49.5603L31.4141 51.9937L33.8474 53.7616L35.6154 51.3283L33.1821 49.5603Z" fill="#4D5152"/>
<path d="M46.2614 47.7779L43.8281 49.5459L45.5961 51.9792L48.0294 50.2112L46.2614 47.7779Z" fill="#4D5152"/>
<path d="M49.0482 35.6433L46.1875 36.5728L47.1169 39.4335L49.9776 38.5041L49.0482 35.6433Z" fill="#4D5152"/>
<path d="M52.683 46.8316L75.6176 30.1683H47.2689L38.5012 3.20325L29.7334 30.1683H1.38477L24.3193 46.8316L15.5666 73.7966L43.1633 53.7495L41.3887 51.3132L21.2814 65.9312L26.876 48.6964L28.9814 50.2154L30.741 47.779L10.6338 33.1761H28.7559L27.9588 35.6425L30.8162 36.5749L38.5012 12.9335L44.0957 30.1683H41.509V33.1761H66.3686L51.7055 43.8238L50.9084 41.3573L48.0359 42.2898L55.7209 65.9312L42.1857 56.0956L40.4111 58.532L61.4357 73.7966L52.683 46.8316Z" fill="#4D5152"/>
</svg>

<svg width="77" height="77" viewBox="0 0 77 77" fill="none" xmlns="http://www.w3.org/2000/svg"><path d="M32.365 31.823h9.144v-1.655h2.587L38.5 12.934l-6.136 18.889zm-5.67 13.023l2.827-8.692-1.564-.511.797-2.467H10.633l16.062 11.67zm10.648 9.414l-7.4-5.383-.962 1.338-2.105-1.519-5.595 17.235 16.062-11.67zm12.241-7.218l-7.4 5.37.978 1.337-2.105 1.534L55.72 65.931l-6.136-18.889zm-3.082-13.866l2.827 8.693 1.58-.512.797 2.467 14.662-10.648H46.502z" fill="#69C9C9"/><path d="M38.5 30.168h-3.008v3.008H38.5v-3.008zm-11.471 8.337l-.93 2.86 2.861.93.93-2.86-2.861-.93zm6.153 11.055l-1.768 2.434 2.433 1.768 1.768-2.434-2.433-1.768zm13.079-1.782l-2.433 1.768 1.768 2.433 2.433-1.768-1.768-2.433zm2.787-12.135l-2.86.93.929 2.86 2.86-.929-.929-2.86z" fill="#4D5152"/><path d="M52.683 46.832l22.935-16.664h-28.35L38.502 3.203l-8.768 26.965H1.385l22.934 16.664-8.752 26.965L43.163 53.75l-1.774-2.437L21.28 65.931l5.595-17.235 2.105 1.52 1.76-2.437-20.107-14.603h18.122l-.797 2.466 2.857.933L38.5 12.933l5.595 17.235h-2.587v3.008h24.86L51.706 43.824l-.798-2.467-2.872.933 7.684 23.64-13.535-9.835-1.775 2.436 21.025 15.265-8.753-26.965z" fill="#4D5152"/></svg>
